logos/hasura.svg

<?xml version="1.0" encoding="UTF-8"?>
<svg width="512px" height="150px" viewBox="0 0 512 150" version="1.1" xmlns="http://www.w3.org/2000/svg" preserveAspectRatio="xMidYMid">
    <title>Hasura</title>
    <g>
        <path d="M135.399164,1.19271338 C136.331353,-0.239835674 138.418835,-0.425224375 139.540664,0.872501932 C147.966996,10.6110114 150.673569,36.7294202 146.54244,50.3558203 L146.340547,50.9951388 C144.872904,55.4612222 144.459257,60.1802793 145.305082,64.7643931 L145.648052,66.6287282 L145.648052,66.6287282 L145.97874,68.5565885 C146.56625,72.1265244 147.030017,75.8294077 147.030017,78.6349448 C147.030017,117.904164 114.431855,149.75672 74.2057972,149.75672 C33.9970126,149.75672 1.38119946,117.920897 1.38119946,78.6349448 C1.38119946,75.5743589 1.93342054,71.4458568 2.59609505,67.5870399 L2.93459154,65.6862978 C2.99185995,65.3753172 3.0493841,65.0677577 3.10690833,64.7643931 C3.91899816,60.4499331 3.6151772,56.0159385 2.35369982,51.7858183 L2.10598891,50.9951388 C-2.31180278,37.5796159 0.345775933,10.7823779 8.90525991,0.872501932 C9.96789151,-0.340956499 11.8979634,-0.253561239 12.8905062,0.977052726 L13.0469396,1.19271338 L23.5909051,17.355394 C26.2140229,20.5744214 30.9078906,21.3328027 34.4284713,19.0743917 C45.8698637,11.7599611 59.5372808,7.51280973 74.22307,7.51280973 C88.9088591,7.51280973 102.575916,11.7599611 114.017309,19.0743917 C117.437756,21.2575223 121.937761,20.6372642 124.588136,17.6706376 L124.855595,17.355394 L135.399164,1.19271338 Z M74.22307,23.759623 C65.5946156,23.759623 57.4147127,25.6472098 50.115,29.0517393 C31.90881,37.4784984 19.0352194,55.1578697 17.9133908,75.8540334 C17.8615726,76.8315626 17.827207,77.8090919 17.827207,78.803534 C17.827207,109.173693 43.1087439,133.881451 74.2057972,133.881451 C105.30303,133.881451 130.6013,109.173693 130.618933,78.820267 C130.618933,77.8427377 130.584567,76.8484755 130.532569,75.8709463 C129.410741,55.1915156 116.53715,37.4954113 98.3313199,29.0684722 C91.0141545,25.6472098 82.8515244,23.759623 74.22307,23.759623 Z M70.4777637,54.4833331 C70.9760418,54.4833331 71.4478711,54.7027762 71.7546358,55.0850109 L71.8755963,55.2586274 L84.2315445,75.6008797 L98.6409698,100.005285 C98.9347863,100.49414 98.9347863,101.100665 98.6409698,101.572607 C98.3994662,102.000354 97.9594583,102.285939 97.4604053,102.350652 L97.2433171,102.364634 L85.5259206,102.364634 C85.027485,102.364634 84.5556361,102.132517 84.2488689,101.746994 L84.127908,101.572607 L76.431462,88.544461 L67.8546459,101.622626 C67.5980287,102.021091 67.1694938,102.277531 66.6964469,102.335415 L66.4913588,102.347901 L54.6012349,102.347901 C53.9972287,102.347901 53.4450407,102.027096 53.1688567,101.521688 C52.9273532,101.079299 52.9103897,100.546956 53.1295376,100.093288 L53.2379477,99.9041677 L69.0972038,76.2750565 L57.2761709,56.8765075 C56.9827142,56.3878329 56.9654415,55.7811278 57.2588981,55.2924532 C57.5155153,54.8499066 57.9571369,54.562334 58.4565983,54.4973556 L58.6738236,54.4833331 L70.4777637,54.4833331 Z" fill="#1EB4D4"></path>
        <path d="M214.196334,37.9184136 L229.227219,37.9184136 L229.227219,118.410651 L214.196334,118.410651 L214.196334,84.1140026 L197.21507,84.1140026 L197.21507,118.428284 L182.184186,118.428284 L182.184186,37.9184136 L197.21507,37.9184136 L197.21507,72.8726861 L214.196334,72.8726861 L214.196334,37.9184136 Z M275.597334,118.426305 L272.455854,101.70809 L254.423831,101.70809 L251.541442,118.426305 L236.510558,118.426305 L253.09419,37.9337071 L273.335685,37.9337071 L290.714582,118.426305 L275.597334,118.426305 Z M256.390405,90.6011767 L270.368731,90.6011767 L263.189748,52.0737856 L256.390405,90.6011767 Z M324.193115,103.746453 L324.193115,86.5226505 C324.193115,85.1573842 323.935823,84.2473266 323.417641,83.7753849 C322.899458,83.3034432 321.933264,83.0675623 320.535252,83.0675623 L309.957496,83.0675623 C300.982868,83.0675623 296.497352,78.8204469 296.497352,70.3093032 L296.497352,50.5570229 C296.497352,42.1302638 301.189781,37.9337071 310.594429,37.9337071 L324.970388,37.9337071 C334.375036,37.9337071 339.069264,42.1469968 339.069264,50.5570229 L339.069264,61.7814265 L323.91783,61.7814265 L323.91783,52.5962861 C323.91783,51.2311997 323.658739,50.3211421 323.142356,49.8492004 C322.624174,49.3772587 321.65798,49.1413778 320.259967,49.1413778 L315.290456,49.1413778 C313.806079,49.1413778 312.8039,49.3772587 312.287517,49.8492004 C311.769335,50.3211421 311.510244,51.2311997 311.510244,52.5962861 L311.510244,68.7925405 C311.510244,70.1578069 311.769335,71.0678645 312.287517,71.5396262 C312.8039,72.0115679 313.806079,72.2476287 315.290456,72.2476287 L325.60912,72.2476287 C334.754677,72.2476287 339.328355,76.4103596 339.328355,84.7529141 L339.328355,105.803529 C339.328355,114.229928 334.583749,118.426305 325.090938,118.426305 L310.975869,118.426305 C301.484857,118.426305 296.738451,114.213195 296.738451,105.803529 L296.738451,94.6966159 L311.751343,94.6966159 L311.751343,103.746453 C311.751343,105.11154 312.010434,106.022317 312.528616,106.494439 C313.046798,106.965481 314.047178,107.202081 315.531554,107.202081 L320.501066,107.202081 C321.899079,107.202081 322.84728,106.965481 323.383455,106.494439 C323.91783,106.022317 324.193115,105.11154 324.193115,103.746453 Z M379.431704,37.9184136 L394.444596,37.9184136 L394.444596,105.787875 C394.444596,114.214095 389.699989,118.410651 380.208977,118.410651 L364.280271,118.410651 C354.789259,118.410651 350.042853,114.197542 350.042853,105.787875 L350.042853,37.9184136 L365.073737,37.9184136 L365.073737,103.748432 C365.073737,105.113519 365.332828,106.023396 365.85101,106.495338 C366.367394,106.96746 367.335387,107.202981 368.733399,107.202981 L375.651492,107.202981 C377.135869,107.202981 378.138048,106.96746 378.654431,106.495338 C379.172613,106.023396 379.431704,105.113519 379.431704,103.748432 L379.431704,37.9184136 Z M421.883066,87.0465904 L421.883066,118.428284 L406.868375,118.428284 L406.868375,37.9184136 L437.173042,37.9184136 C446.664054,37.9184136 451.40866,42.1317032 451.40866,50.5417294 L451.40866,74.4063617 C451.40866,81.3838298 448.234794,85.462356 441.867269,86.6588533 L455.586504,118.428284 L439.382513,118.428284 L426.836385,87.0465904 L421.883066,87.0465904 Z M421.883066,49.1428172 L421.883066,76.192831 L432.719913,76.192831 C434.117925,76.192831 435.067926,75.9569501 435.602302,75.4850084 C436.120484,75.0130667 436.377776,74.1030091 436.377776,72.7379227 L436.377776,52.5979054 C436.377776,51.2326391 436.120484,50.3225815 435.602302,49.8506398 C435.084119,49.3786981 434.117925,49.1428172 432.719913,49.1428172 L421.883066,49.1428172 Z M496.866559,118.426305 L493.725079,101.70809 L475.691257,101.70809 L472.808868,118.426305 L457.795976,118.426305 L474.379608,37.9337071 L494.622902,37.9337071 L512,118.426305 L496.866559,118.426305 Z M477.675823,90.6011767 L491.654149,90.6011767 L484.475166,52.0737856 L477.675823,90.6011767 Z" fill="#1B2738"></path>
    </g>
</svg>

<svg preserveAspectRatio="xMidYMid" viewBox="0 0 512 150" xmlns="http://www.w3.org/2000/svg">
  <path fill="#1EB4D4" d="M135.4 1.193c.931-1.433 3.019-1.618 4.14-.32 8.427 9.738 11.134 35.856 7.002 49.483l-.201.64c-1.468 4.465-1.882 9.184-1.036 13.768l.343 1.865.33 1.928c.588 3.57 1.052 7.272 1.052 10.078 0 39.27-32.598 71.122-72.824 71.122-40.209 0-72.825-31.836-72.825-71.122 0-3.06.552-7.19 1.215-11.048l.339-1.9c.057-.312.114-.62.172-.923.812-4.314.508-8.748-.753-12.978l-.248-.79C-2.312 37.58.346 10.781 8.906.872 9.967-.341 11.897-.254 12.89.977l.156.216L23.59 17.355c2.623 3.22 7.317 3.978 10.837 1.72C45.87 11.76 59.538 7.512 74.223 7.512c14.686 0 28.353 4.247 39.794 11.561 3.42 2.184 7.92 1.563 10.571-1.403l.268-.316 10.543-16.162ZM74.222 23.76c-8.628 0-16.808 1.887-24.108 5.292-18.206 8.426-31.08 26.106-32.202 46.802a55.513 55.513 0 0 0-.086 2.95c0 30.37 25.282 55.077 56.379 55.077 31.097 0 56.395-24.707 56.413-55.06 0-.978-.034-1.973-.086-2.95-1.122-20.68-13.996-38.376-32.202-46.803-7.317-3.42-15.48-5.308-24.108-5.308Zm-3.745 30.723c.498 0 .97.22 1.277.602l.12.174L84.233 75.6l14.409 24.404a1.504 1.504 0 0 1 0 1.568 1.581 1.581 0 0 1-1.18.778l-.218.014H85.526c-.499 0-.97-.232-1.277-.618l-.121-.174-7.697-13.029-8.576 13.079a1.604 1.604 0 0 1-1.159.712l-.205.013h-11.89c-.604 0-1.156-.32-1.432-.826a1.563 1.563 0 0 1-.04-1.429l.109-.189 15.86-23.629-11.822-19.398a1.535 1.535 0 0 1-.017-1.585 1.62 1.62 0 0 1 1.198-.795l.217-.014h11.804Z"/>
  <path fill="#1B2738" d="M214.196 37.918h15.031v80.493h-15.03V84.114h-16.982v34.314h-15.03v-80.51h15.03v34.955h16.981V37.918Zm61.401 80.508-3.141-16.718h-18.032l-2.883 16.718h-15.03l16.583-80.492h20.242l17.379 80.492h-15.118ZM256.39 90.601h13.979l-7.18-38.527L256.39 90.6Zm67.803 13.145V86.523c0-1.366-.257-2.276-.775-2.748-.519-.472-1.485-.707-2.883-.707h-10.578c-8.974 0-13.46-4.248-13.46-12.759V50.557c0-8.427 4.693-12.623 14.097-12.623h14.376c9.405 0 14.1 4.213 14.1 12.623v11.224h-15.152v-9.185c0-1.365-.26-2.275-.776-2.747-.518-.472-1.484-.708-2.882-.708h-4.97c-1.484 0-2.486.236-3.002.708-.519.472-.778 1.382-.778 2.747v16.197c0 1.365.26 2.275.778 2.747.516.472 1.518.708 3.002.708h10.32c9.145 0 13.718 4.162 13.718 12.505v21.05c0 8.427-4.744 12.623-14.237 12.623h-14.115c-9.491 0-14.238-4.213-14.238-12.622V94.697h15.013v9.05c0 1.365.26 2.275.778 2.747.518.471 1.518.708 3.003.708h4.97c1.397 0 2.345-.237 2.881-.708.535-.472.81-1.382.81-2.748Zm55.239-65.828h15.013v67.87c0 8.426-4.745 12.623-14.236 12.623H364.28c-9.49 0-14.237-4.213-14.237-12.623v-67.87h15.03v65.83c0 1.366.26 2.275.778 2.747.516.472 1.484.708 2.882.708h6.918c1.485 0 2.487-.236 3.003-.708.519-.472.778-1.381.778-2.747v-65.83Zm42.451 49.129v31.381h-15.015v-80.51h30.305c9.491 0 14.236 4.214 14.236 12.624v23.864c0 6.978-3.174 11.056-9.542 12.253l13.72 31.77h-16.204l-12.547-31.382h-4.953Zm0-37.904v27.05h10.837c1.398 0 2.348-.236 2.882-.708.518-.472.776-1.382.776-2.747v-20.14c0-1.365-.258-2.275-.776-2.747s-1.484-.708-2.882-.708h-10.837Zm74.984 69.283-3.142-16.718h-18.034l-2.882 16.718h-15.013l16.584-80.492h20.243L512 118.426h-15.133Zm-19.191-27.825h13.978l-7.179-38.527-6.8 38.527Z"/>
</svg>
